icons/line/applications-add.svg

<svg width="24" height="24" viewBox="0 0 24 24" fill="none" xmlns="http://www.w3.org/2000/svg">
<path fill-rule="evenodd" clip-rule="evenodd" d="M6 3C4.34315 3 3 4.34315 3 6V8C3 9.65685 4.34315 11 6 11H8C9.65685 11 11 9.65685 11 8V6C11 4.34315 9.65685 3 8 3H6ZM5 6C5 5.44772 5.44772 5 6 5H8C8.55228 5 9 5.44772 9 6V8C9 8.55228 8.55228 9 8 9H6C5.44772 9 5 8.55228 5 8V6ZM6 13C4.34315 13 3 14.3431 3 16V18C3 19.6569 4.34315 21 6 21H8C9.65685 21 11 19.6569 11 18V16C11 14.3431 9.65685 13 8 13H6ZM5 16C5 15.4477 5.44772 15 6 15H8C8.55228 15 9 15.4477 9 16V18C9 18.5523 8.55228 19 8 19H6C5.44772 19 5 18.5523 5 18V16ZM13 6C13 4.34315 14.3431 3 16 3H18C19.6569 3 21 4.34315 21 6V8C21 9.65685 19.6569 11 18 11H16C14.3431 11 13 9.65685 13 8V6ZM16 5C15.4477 5 15 5.44772 15 6V8C15 8.55228 15.4477 9 16 9H18C18.5523 9 19 8.55228 19 8V6C19 5.44772 18.5523 5 18 5H16ZM18 14C18 13.4477 17.5523 13 17 13C16.4477 13 16 13.4477 16 14V16H14C13.4477 16 13 16.4477 13 17C13 17.5523 13.4477 18 14 18H16V20C16 20.5523 16.4477 21 17 21C17.5523 21 18 20.5523 18 20V18H20C20.5523 18 21 17.5523 21 17C21 16.4477 20.5523 16 20 16H18V14Z" fill="currentColor"/>
</svg>

<svg width="24" height="24" fill="none" xmlns="http://www.w3.org/2000/svg"><path fill-rule="evenodd" clip-rule="evenodd" d="M6 3a3 3 0 00-3 3v2a3 3 0 003 3h2a3 3 0 003-3V6a3 3 0 00-3-3H6zM5 6a1 1 0 011-1h2a1 1 0 011 1v2a1 1 0 01-1 1H6a1 1 0 01-1-1V6zm1 7a3 3 0 00-3 3v2a3 3 0 003 3h2a3 3 0 003-3v-2a3 3 0 00-3-3H6zm-1 3a1 1 0 011-1h2a1 1 0 011 1v2a1 1 0 01-1 1H6a1 1 0 01-1-1v-2zm8-10a3 3 0 013-3h2a3 3 0 013 3v2a3 3 0 01-3 3h-2a3 3 0 01-3-3V6zm3-1a1 1 0 00-1 1v2a1 1 0 001 1h2a1 1 0 001-1V6a1 1 0 00-1-1h-2zm2 9a1 1 0 10-2 0v2h-2a1 1 0 100 2h2v2a1 1 0 102 0v-2h2a1 1 0 100-2h-2v-2z" fill="currentColor"/></svg>
